Gruvbox-Plus-Dark/emblems/16/vcs-locally-modified.svg

<svg width="16" height="16" version="1.1" xmlns="http://www.w3.org/2000/svg">
  <circle cx="8" cy="8" r="7" fill="#d3869b"/>
  <path d="m8 4v2.018h-1.62c-1.029 1e-4 -1.98 0.5088-2.494 1.335-0.5145 0.8258-0.5145 1.993 0 2.819 0.4897 0.783 1.375 1.283 2.35 1.328-0.7361-0.068-1.236-0.642-1.236-1.328 0-0.7371 0.5846-1.181 1.38-1.172h1.62v2l4-3.5z" fill="#ebdbb2"/>
</svg>

<svg xmlns="http://www.w3.org/2000/svg" width="16" height="16" version="1.1" viewBox="0 0 16 16">
 <circle style="fill:#d3869b" cx="8" cy="8" r="7"/>
 <path style="fill:#ebdbb2;fill-rule:evenodd" d="M 8,4 V 6.0182 H 6.3799 C 5.351,6.0183 4.4003,6.527 3.8859,7.3528 3.3714,8.1786 3.3714,9.3461 3.8859,10.172 4.3756,10.955 5.2606,11.455 6.2364,11.5 5.5003,11.432 4.9999,10.858 5,10.172 5,9.4349 5.5846,8.9908 6.3799,9 H 8 V 11 L 12,7.5 Z"/>
</svg>
